LucasHints/Assets.xcassets/glyphs/building/city.imageset/city.svg

<svg enable-background="new 0 0 122.88 86.59" viewBox="0 0 122.88 86.59" xmlns="http://www.w3.org/2000/svg"><path d="m53.65 50.1h-.71v34.17h13.7v-17.2c0-.55.44-.99.99-.99h11.49c.55 0 .99.44.99.99v17.2h40.44v-51.87h-24.53v51.86h-2.32v-81.94h-40.81v39.89l2.98 4.75c.19.3.28.62.28.95 0 .42-.15.81-.4 1.14-.15.2-.34.38-.55.53l-.13.09c-.42.26-.94.43-1.42.43zm56.02-46.48c5.55-3.84 5.97 3.76 11.42-.98v7.74c-5.2 4.68-6.32-2.88-11.42.96zm-1.37-2.11c.59 0 1.06.47 1.06 1.06 0 .39-.21.73-.52.91h.05v9.31c2.98 4.14 13.99 18.96 13.99 19v53.64c0 .64-.52 1.16-1.16 1.16-23.72 0-47.44 0-71.15 0h-16.08-12.84-17.1c-.75 0-1.35-.61-1.35-1.35v-35.14h-.71c-.47 0-1-.17-1.42-.43-.26-.17-.5-.38-.68-.61-.24-.34-.39-.73-.39-1.15 0-.32.09-.65.28-.95 2.74-4.37 5.66-8.78 8.28-13.21.42-.76.81-1.46 2.07-1.46h34.87c1.26 0 1.65.7 2.08 1.47l.14.24 2.84 4.52v-36.48c0-.56.23-1.07.6-1.44.37-.37.88-.6 1.44-.6h41.37c.56 0 1.07.23 1.44.6l.09.1c.32.36.51.83.51 1.35v28.04l11.69-17.47v-9.14h.05c-.31-.18-.52-.52-.52-.91.01-.58.48-1.06 1.07-1.06zm-39.67 82.75h9.51v-16.21h-9.51zm-46.78-28.68h11.58v7.7h-11.58zm2.89 10.58h6.65c1.22 0 2.34.5 3.14 1.31.81.81 1.31 1.92 1.31 3.14v13.28h14.4v-33.79h-44.34v33.79h14.4v-13.28c0-1.22.5-2.34 1.31-3.14.8-.81 1.91-1.31 3.13-1.31zm6.66 2.7h-6.65c-.48 0-.91.2-1.23.51-.32.32-.52.76-.52 1.24v13.28h10.14v-13.28c0-.48-.2-.91-.51-1.23-.32-.32-.75-.52-1.23-.52zm8.71.64h6.67v7.7h-6.67zm0-13.92h6.67v7.7h-6.67zm-30.74 13.92h6.67v7.7h-6.67zm0-13.92h6.67v7.7h-6.67zm48.52-48.89h30.98v24.38h-30.98zm44.26 56.82h12.81c.11 0 .2.07.2.14v3.78c0 .07-.09.14-.2.14h-12.81c-.1 0-.2-.06-.2-.14v-3.78c.01-.07.1-.14.2-.14zm0-8.28h12.81c.11 0 .2.07.2.14v3.78c0 .07-.09.14-.2.14h-12.81c-.1 0-.2-.06-.2-.14v-3.78c.01-.07.1-.14.2-.14zm0-8.28h12.81c.11 0 .2.07.2.14v3.78c0 .07-.09.14-.2.14h-12.81c-.1 0-.2-.06-.2-.14v-3.78c.01-.07.1-.14.2-.14zm-20.53 6.45h6.84c.11 0 .2.09.2.2v6.84c0 .11-.09.2-.2.2h-6.84c-.11 0-.2-.09-.2-.2v-6.84c.01-.11.1-.2.2-.2zm-11.75 0h6.84c.11 0 .2.09.2.2v6.84c0 .11-.09.2-.2.2h-6.84c-.11 0-.2-.09-.2-.2v-6.84c0-.11.09-.2.2-.2zm-11.75 0h6.84c.11 0 .2.09.2.2v6.84c0 .11-.09.2-.2.2h-6.84c-.11 0-.2-.09-.2-.2v-6.84c0-.11.09-.2.2-.2zm23.5-13.27h6.84c.11 0 .2.09.2.2v6.84c0 .11-.09.2-.2.2h-6.84c-.11 0-.2-.09-.2-.2v-6.84c.01-.11.1-.2.2-.2zm-11.75 0h6.84c.11 0 .2.09.2.2v6.84c0 .11-.09.2-.2.2h-6.84c-.11 0-.2-.09-.2-.2v-6.84c0-.11.09-.2.2-.2zm-11.75 0h6.84c.11 0 .2.09.2.2v6.84c0 .11-.09.2-.2.2h-6.84c-.11 0-.2-.09-.2-.2v-6.84c0-.11.09-.2.2-.2z"/></svg>

<?xml version="1.0" encoding="utf-8"?><svg version="1.1" id="Layer_1" xmlns="http://www.w3.org/2000/svg" xmlns:xlink="http://www.w3.org/1999/xlink" x="0px" y="0px" viewBox="0 0 122.88 86.59" style="enable-background:new 0 0 122.88 86.59" xml:space="preserve"><g><path d="M53.65,50.1h-0.71v34.17h13.7v-17.2c0-0.55,0.44-0.99,0.99-0.99h11.49c0.55,0,0.99,0.44,0.99,0.99v17.2h40.44V32.4H96.02 v51.86h-2.32V2.32H52.89v39.89l2.98,4.75c0.19,0.3,0.28,0.62,0.28,0.95c0,0.42-0.15,0.81-0.4,1.14c-0.15,0.2-0.34,0.38-0.55,0.53 l-0.13,0.09C54.65,49.93,54.13,50.1,53.65,50.1L53.65,50.1z M109.67,3.62c5.55-3.84,5.97,3.76,11.42-0.98v7.74 c-5.2,4.68-6.32-2.88-11.42,0.96V3.62L109.67,3.62z M108.3,1.51c0.59,0,1.06,0.47,1.06,1.06c0,0.39-0.21,0.73-0.52,0.91h0.05v9.31 c2.98,4.14,13.99,18.96,13.99,19v53.64c0,0.64-0.52,1.16-1.16,1.16c-23.72,0-47.44,0-71.15,0v0H34.49H21.65H4.55 c-0.75,0-1.35-0.61-1.35-1.35V50.1H2.49c-0.47,0-1-0.17-1.42-0.43c-0.26-0.17-0.5-0.38-0.68-0.61C0.15,48.72,0,48.33,0,47.91 c0-0.32,0.09-0.65,0.28-0.95c2.74-4.37,5.66-8.78,8.28-13.21c0.42-0.76,0.81-1.46,2.07-1.46h34.87c1.26,0,1.65,0.7,2.08,1.47 L47.72,34l2.84,4.52V2.04c0-0.56,0.23-1.07,0.6-1.44v0C51.53,0.23,52.04,0,52.6,0h41.37c0.56,0,1.07,0.23,1.44,0.6l0.09,0.1 c0.32,0.36,0.51,0.83,0.51,1.35v28.04l11.69-17.47V3.48h0.05c-0.31-0.18-0.52-0.52-0.52-0.91C107.24,1.99,107.71,1.51,108.3,1.51 L108.3,1.51z M68.63,84.26h9.51V68.05h-9.51V84.26L68.63,84.26z M21.85,55.58h11.58v7.7H21.85V55.58L21.85,55.58z M24.74,66.16 h6.65c1.22,0,2.34,0.5,3.14,1.31c0.81,0.81,1.31,1.92,1.31,3.14v13.28h14.4V50.1H5.9v33.79h14.4V70.61c0-1.22,0.5-2.34,1.31-3.14 C22.41,66.66,23.52,66.16,24.74,66.16L24.74,66.16z M31.4,68.86h-6.65c-0.48,0-0.91,0.2-1.23,0.51C23.2,69.69,23,70.13,23,70.61 v13.28h10.14V70.61c0-0.48-0.2-0.91-0.51-1.23C32.31,69.06,31.88,68.86,31.4,68.86L31.4,68.86z M40.11,69.5h6.67v7.7h-6.67V69.5 L40.11,69.5z M40.11,55.58h6.67v7.7h-6.67V55.58L40.11,55.58z M9.37,69.5h6.67v7.7H9.37V69.5L9.37,69.5z M9.37,55.58h6.67v7.7H9.37 V55.58L9.37,55.58z M57.89,6.69h30.98v24.38H57.89V6.69L57.89,6.69z M102.15,63.51h12.81c0.11,0,0.2,0.07,0.2,0.14v3.78 c0,0.07-0.09,0.14-0.2,0.14h-12.81c-0.1,0-0.2-0.06-0.2-0.14v-3.78C101.96,63.58,102.05,63.51,102.15,63.51L102.15,63.51z M102.15,55.23h12.81c0.11,0,0.2,0.07,0.2,0.14v3.78c0,0.07-0.09,0.14-0.2,0.14h-12.81c-0.1,0-0.2-0.06-0.2-0.14v-3.78 C101.96,55.3,102.05,55.23,102.15,55.23L102.15,55.23z M102.15,46.95h12.81c0.11,0,0.2,0.07,0.2,0.14v3.78 c0,0.07-0.09,0.14-0.2,0.14h-12.81c-0.1,0-0.2-0.06-0.2-0.14v-3.78C101.96,47.02,102.05,46.95,102.15,46.95L102.15,46.95z M81.62,53.4h6.84c0.11,0,0.2,0.09,0.2,0.2v6.84c0,0.11-0.09,0.2-0.2,0.2h-6.84c-0.11,0-0.2-0.09-0.2-0.2V53.6 C81.43,53.49,81.52,53.4,81.62,53.4L81.62,53.4z M69.87,53.4h6.84c0.11,0,0.2,0.09,0.2,0.2v6.84c0,0.11-0.09,0.2-0.2,0.2h-6.84 c-0.11,0-0.2-0.09-0.2-0.2V53.6C69.67,53.49,69.76,53.4,69.87,53.4L69.87,53.4z M58.12,53.4h6.84c0.11,0,0.2,0.09,0.2,0.2v6.84 c0,0.11-0.09,0.2-0.2,0.2h-6.84c-0.11,0-0.2-0.09-0.2-0.2V53.6C57.92,53.49,58.01,53.4,58.12,53.4L58.12,53.4z M81.62,40.13h6.84 c0.11,0,0.2,0.09,0.2,0.2v6.84c0,0.11-0.09,0.2-0.2,0.2h-6.84c-0.11,0-0.2-0.09-0.2-0.2v-6.84C81.43,40.22,81.52,40.13,81.62,40.13 L81.62,40.13z M69.87,40.13h6.84c0.11,0,0.2,0.09,0.2,0.2v6.84c0,0.11-0.09,0.2-0.2,0.2h-6.84c-0.11,0-0.2-0.09-0.2-0.2v-6.84 C69.67,40.22,69.76,40.13,69.87,40.13L69.87,40.13z M58.12,40.13h6.84c0.11,0,0.2,0.09,0.2,0.2v6.84c0,0.11-0.09,0.2-0.2,0.2h-6.84 c-0.11,0-0.2-0.09-0.2-0.2v-6.84C57.92,40.22,58.01,40.13,58.12,40.13L58.12,40.13z"/></g></svg>
